X:1
T:A Clean Song
M:3/4
L:1/4
K:C
 G,| C E G,| C E G,| E F E| D2 G,| B, D G,| B, D G,| D E D| C E G,|\
 C E G,| E F E| D2 G,| B, D G,| B, D G,| D E D|
